src/svg/calendar.svg

<svg width="14" height="16" xmlns="http://www.w3.org/2000/svg"><path d="M0 5h14v1H0V5zm3-5h1v4H3V0zm7 0h1v4h-1V0zM0 2.5A1.5 1.5 0 0 1 1.5 1h11A1.5 1.5 0 0 1 14 2.5v12a1.5 1.5 0 0 1-1.5 1.5h-11A1.5 1.5 0 0 1 0 14.5v-12zM1 2v13h12V2H1z" fill="#000" fill-rule="nonzero"/></svg>

<?xml version="1.0" encoding="UTF-8"?>
<svg width="14px" height="16px" viewBox="0 0 14 16" version="1.1" xmlns="http://www.w3.org/2000/svg" xmlns:xlink="http://www.w3.org/1999/xlink">
    <!-- Generator: Sketch 50.2 (55047) - http://www.bohemiancoding.com/sketch -->
    <title>calendar</title>
    <desc>Created with Sketch.</desc>
    <defs></defs>
    <g id="calendar" stroke="none" stroke-width="1" fill="none" fill-rule="evenodd">
        <path d="M0,5 L14,5 L14,6 L0,6 L0,5 Z M3,0 L4,0 L4,4 L3,4 L3,0 Z M10,0 L11,0 L11,4 L10,4 L10,0 Z M0,2.5 C-8.32667268e-17,1.67157288 0.671572875,1 1.5,1 L12.5,1 C13.3284271,1 14,1.67157288 14,2.5 L14,14.5 C14,15.3284271 13.3284271,16 12.5,16 L1.5,16 C0.671572875,16 1.66533454e-16,15.3284271 0,14.5 L0,2.5 Z M1,2 L1,15 L13,15 L13,2 L1,2 Z" id="square" fill="#000000" fill-rule="nonzero"></path>
    </g>
</svg>
